!!!!SEGMENT: pl-sa--127-a-iii-27--003_guglielmi-pietro-alessandro--symphonia-in-d-allegro.krn
!!!cenid: 17xx:681
!!!COM: Guglielmi, Pietro Alessandro
!!!COM-rismID: pe30001398
!!!CDT: 1728/12/09-1804/11/19
!!!CNT: Italian
!!!OPR: Symphonia in D
!!!OTL: Allegro
!!!OMV: 003
!!!PDT:
!!!AGN: Secular
!!!SMS-siglum: PL-SA
!!!SMS-shelfmark: 127/A III 27
!!!SMS-shelfwork: 001-003 M
!!!SMS-variant:
!!!SMS-altvar:
!!!NIFC-rismSourceID: 1001035048
!!!NIFC-islandoraID:
!!!URL-pdf-islandora:
!!!URL-scan: https://bc.bdsandomierz.pl/dlibra/publication/1484/edition/1452/content @EN{Scan in the Sandomierz Diocese Digital Library} @PL{Skany w portalu Cyfrowa Biblioteka Diecezjalna w Sandomierzu}
!!!ONB-nifc: UWAGA: części Symphonii: Allegro assai, Andante, Allegro
!!!AIN: 3 empty 2 oboe 2 violn
!!!key:
**kern	**dynam	**kern	**dynam	**kern	**dynam	**kern	**kern	**kern	**kern
*part7	*part7	*part6	*part6	*part5	*part5	*part4	*part3	*part2	*part1
*staff7	*	*staff6	*	*staff5	*	*staff4	*staff3	*staff2	*staff1
*group3	*	*group3	*	*group3	*	*group2	*group2	*group1	*group1
*Iempty	*	*Ivioln	*	*Ivioln	*	*Iempty	*Iempty	*Ioboe	*Ioboe
*I"Baſso	*	*I"Violino 2'do	*	*I"Violino Imo	*	*I"Cornu 2'do ex D.	*I"Cornu Imo ex D.	*I"Oboe 2do.	*I"Oboe 1mo
*I'B.	*	*I'V-no II	*	*I'Vn I	*	*I'C. II ex D	*I'C. I in D	*I'Ob. II	*I'Ob. I
*clefF4	*	*clefG2	*	*clefG2	*	*clefG2	*clefG2	*clefG2	*clefG2
*ITrd0c0	*	*	*	*	*	*ITrd6c10	*ITrd6c10	*	*
*k[f#c#]	*	*k[f#c#]	*	*k[f#c#]	*	*k[f#c#]	*k[f#c#]	*k[f#c#]	*k[f#c#]
*D:	*	*D:	*	*D:	*	*D:	*D:	*D:	*D:
*M6/8	*	*M6/8	*	*M6/8	*	*M6/8	*M6/8	*M6/8	*M6/8
=1	=1	=1	=1	=1	=1	=1	=1	=1	=1
*	*	*^	*	*^	*	*	*	*	*
!LO:TX:a:t=problem:caudy z prawej strony	!	!LO:TX:a:t=problem:caudy z prawej strony	!	!	!LO:TX:a:t=problem:caudy z prawej strony	!	!	!LO:TX:a:t=problem:caudy z prawej strony	!LO:TX:a:t=problem:caudy z prawej strony	!LO:TX:a:t=problem:caudy z prawej strony	!LO:TX:a:t=problem:caudy z prawej strony
!LO:TX:a:t=all'o	!	!LO:TX:a:t=allo'.	!	!	!LO:TX:a:t=allo'	!	!	!LO:TX:a:t=allo	!LO:TX:a:t=allo	!LO:TX:a:t=allo	!LO:TX:a:t=allo'
4D\	.	4d/ 4a 4ff#	4ryy	.	4d/ 4a 4ff#	4ryy	.	4.F#/	4.d\	4.dd\	4.dd\
8r	.	8r	8ryy	.	8r	8ryy	.	.	.	.	.
4A\	.	4cc#/ 4ee	4a\	.	4cc#/ 4ee	4a\	.	4.A/	4.e\	4.ee\	4.ee\
8r	.	8r	8ryy	.	8r	8ryy	.	.	.	.	.
=2	=2	=2	=2	=2	=2	=2	=2	=2	=2	=2	=2
4d\	.	4d/ 4a 4ff#	4ryy	.	4d/ 4a 4ff#	4ryy	.	4d\	4f#\	4ff#\	4ff#\
8r	.	8aa\	8ryy	.	8aa\	8ryy	.	8r	8r	8aa\	8aa\
4r	.	4aa/	4a\	.	4aa/	4a\	.	4r	4r	4aa\	4aa\
8r	.	8r	8ryy	.	8r	8ryy	.	8r	8r	8r	8r
*	*	*v	*v	*	*	*	*	*	*	*	*
*	*	*	*	*v	*v	*	*	*	*	*
=3	=3	=3	=3	=3	=3	=3	=3	=3	=3
4d\	.	8aa\L	.	8aa\L	.	4.d\	4.f#\	8aa\L	8aa\L
.	.	8ff#\	.	8ff#\	.	.	.	8ff#\	8ff#\
8r	.	8dd\J	.	8dd\J	.	.	.	8dd\J	8dd\J
4A\	.	8gg\L	.	8gg\L	.	4.A/	4.e\	8gg\L	8gg\L
.	.	8ee\	.	8ee\	.	.	.	8ee\	8ee\
8r	.	8cc#\J	.	8cc#\J	.	.	.	8cc#\J	8cc#\J
=4	=4	=4	=4	=4	=4	=4	=4	=4	=4
4D\	.	4dd\	.	4dd\	.	4F#/	4d\	4dd\	4dd\
8r	.	8a/	.	8a/	.	8r	8r	8a/	8a/
4r	.	4a/	.	4a/	.	4r	4r	4a/	4a/
8r	.	8r	.	8r	.	8r	8r	8r	8r
!	!	!	!	!	!	!	!	!	!LO:LB:g=original
=5	=5	=5	=5	=5	=5	=5	=5	=5	=5
*	*	*^	*	*^	*	*	*	*	*
4D\	.	4d/ 4a 4ff#	4ryy	.	4d/ 4a 4ff#	4ryy	.	4.F#/	4.d\	4.dd\	4.dd\
8r	.	8r	8ryy	.	8r	8ryy	.	.	.	.	.
4A\	.	4cc#/ 4ee	4a\	.	4cc#/ 4ee	4a\	.	4.A/	4.e\	4.ee\	4.ee\
8r	.	8r	8ryy	.	8r	8ryy	.	.	.	.	.
=6	=6	=6	=6	=6	=6	=6	=6	=6	=6	=6	=6
4d\	.	4d/ 4a 4ff#	4ryy	.	4d/ 4a 4ff#	4ryy	.	4d\	4f#\	4ff#\	4ff#\
8r	.	8aa\	8ryy	.	8aa\	8ryy	.	8r	8r	8aa\	8aa\
4r	.	4aa/	4a\	.	4aa/	4a\	.	4r	4r	4aa\	4aa\
8r	.	8r	8ryy	.	8r	8ryy	.	8r	8r	8r	8r
*	*	*v	*v	*	*	*	*	*	*	*	*
*	*	*	*	*v	*v	*	*	*	*	*
=7	=7	=7	=7	=7	=7	=7	=7	=7	=7
4.d\	.	8aa\L	.	8aa\L	.	4.d\	4.f#\	8aa\L	8aa\L
.	.	8ff#\	.	8ff#\	.	.	.	8ff#\	8ff#\
.	.	8dd\J	.	8dd\J	.	.	.	8dd\J	8dd\J
4.A\	.	8gg\L	.	8gg\L	.	4.A/	4.e\	8gg\L	8gg\L
.	.	8ee\	.	8ee\	.	.	.	8ee\	8ee\
.	.	8cc#\J	.	8cc#\J	.	.	.	8cc#\J	8cc#\J
!	!	!LO:LB:g=original	!	!LO:LB:g=original	!	!LO:LB:g=original	!	!	!
=8	=8	=8	=8	=8	=8	=8	=8	=8	=8
4d\	.	4dd\	.	4dd\	.	4F#/	4d\	4dd\	4dd\
8r	.	8a/	.	8a/	.	8r	8r	8a/	8a/
4D/	.	4a/	.	4a/	.	4r	4r	4a/	4a/
8r	.	8r	.	8r	.	8r	8r	8r	8r
!LO:LB:g=original	!	!	!	!	!	!	!	!LO:LB:g=original	!
=9	=9	=9	=9	=9	=9	=9	=9	=9	=9
*	*	*	*	*	*	*2\right	*2\right	*	*
4G\	.	4d/ 4b 4gg	.	8bb\L	.	2.d\	2.d\	4.bb\	4.bb\
.	.	.	.	8bb\	.	.	.	.	.
8D\	.	8r	.	8bb\J	.	.	.	.	.
4F#\	.	4d/ 4a 4ff#	.	8aa\L	.	.	.	4.aa\	4.aa\
.	.	.	.	8aa\	.	.	.	.	.
8D\	.	8r	.	8aa\J	.	.	.	.	.
=10	=10	=10	=10	=10	=10	=10	=10	=10	=10
*	*	*^	*	*	*	*	*	*	*
4E\	.	4cc#/ 4ee	4a\	.	8gg\L	.	4.A/	4.e\	4.gg\	4.gg\
.	.	.	.	.	8gg\	.	.	.	.	.
8AA/	.	8r	8ryy	.	8gg\J	.	.	.	.	.
4D\	.	4d/ 4a 4ff#	4ryy	.	8ff#\L	.	4F#/	4d\	4.ff#\	4.ff#\
.	.	.	.	.	8ff#\	.	.	.	.	.
8r	.	8r	8ryy	.	8ff#\J	.	8r	8r	.	.
*	*	*v	*v	*	*	*	*	*	*	*
!	!	!	!	!	!	!	!LO:LB:g=original	!	!
=11	=11	=11	=11	=11	=11	=11	=11	=11	=11
4G\	.	4d/ 4b 4gg	.	8bb\L	.	2.d\	2.d\	4.bb\	4.bb\
.	.	.	.	8bb\	.	.	.	.	.
8D\	.	8r	.	8bb\J	.	.	.	.	.
4F#\	.	4d/ 4a 4ff#	.	8aa\L	.	.	.	4.aa\	4.aa\
.	.	.	.	8aa\	.	.	.	.	.
8D\	.	8r	.	8aa\J	.	.	.	.	.
=12	=12	=12	=12	=12	=12	=12	=12	=12	=12
*	*	*^	*	*	*	*	*	*	*
4E\	.	4cc#/ 4ee	4a\	.	8gg\L	.	4.A/	4.e\	4.gg\	4.gg\
.	.	.	.	.	8gg\	.	.	.	.	.
8AA/	.	8r	8ryy	.	8gg\J	.	.	.	.	.
4D\	.	4d/ 4a 4ff#	4ryy	.	8ff#\L	.	4F#/	4d\	4.ff#\	4.ff#\
.	.	.	.	.	8ff#\	.	.	.	.	.
8r	.	8r	8ryy	.	8ff#\J	.	8r	8r	.	.
=13	=13	=13	=13	=13	=13	=13	=13	=13	=13	=13
*	*	*	*	*	*^	*	*	*	*	*
4c#\	.	4cc#/ 4ee	4a\	.	8ee/L	4.a\	.	2.A/	2.A/	4.ee\	4.ee\
.	.	.	.	.	8ee/	.	.	.	.	.	.
8A\	.	8r	8ryy	.	8ee/J	.	.	.	.	.	.
4c#\	.	4cc#/ 4ee	4a\	.	8aa/L	4.a\	.	.	.	4.aa\	4.aa\
.	.	.	.	.	8aa/	.	.	.	.	.	.
8A\	.	8r	8ryy	.	8aa/J	.	.	.	.	.	.
*	*	*v	*v	*	*	*	*	*	*	*	*
!	!	!	!	!	!	!	!	!	!	!LO:LB:g=original
=14	=14	=14	=14	=14	=14	=14	=14	=14	=14	=14
4d\	.	4d/ 4a 4ff#	.	8ff#/L	4.a\	.	2.A/	2.A/	4.ff#\	4.ff#\
.	.	.	.	8ff#/	.	.	.	.	.	.
8A\	.	8r	.	8ff#/J	.	.	.	.	.	.
4d\	.	4d/ 4a 4ff#	.	8aa/L	4.a\	.	.	.	4.aa\	4.aa\
.	.	.	.	8aa/	.	.	.	.	.	.
8A\	.	8r	.	8aa/J	.	.	.	.	.	.
!	!	!	!	!LO:LB:g=original	!	!	!	!	!	!
=15	=15	=15	=15	=15	=15	=15	=15	=15	=15	=15
*	*	*^	*	*	*	*	*	*	*	*
4c#\	.	4cc#/ 4ee	4a\	.	8ee/L	4.a\	.	2.A/	2.A/	4.ee\	4.ee\
.	.	.	.	.	8ee/	.	.	.	.	.	.
8A\	.	8r	8ryy	.	8ee/J	.	.	.	.	.	.
4c#\	.	4cc#/ 4ee	4a\	.	8aa/L	4.a\	.	.	.	4.aa\	4.aa\
.	.	.	.	.	8aa/	.	.	.	.	.	.
8A\	.	8r	8ryy	.	8aa/J	.	.	.	.	.	.
*	*	*v	*v	*	*	*	*	*	*	*	*
*	*	*	*	*v	*v	*	*	*	*	*
=16	=16	=16	=16	=16	=16	=16	=16	=16	=16
4d\	.	4d/ 4a 4ff#	.	4ff#\	.	4A/	4A/	4ff#\	4ff#\
8r	.	8r	.	8dd\	.	8r	8r	8dd\	8dd\
4D\	.	4d/ 4a 4ff#	.	4dd\	.	4r	4r	4dd\	4dd\
8r	.	8r	.	8r	.	8r	8r	8r	8r
!LO:LB:g=original	!	!LO:LB:g=original	!	!	!	!	!	!	!
=17	=17	=17	=17	=17	=17	=17	=17	=17	=17
*	*	*^	*	*	*	*	*	*	*
4.e\	.	8ee/L	8ee\L	.	4e/ 4b 4gg#X	.	2.e\	2.e\	4gg#X\	4gg#X\
.	.	8ee/	8ee\	.	.	.	.	.	.	.
.	.	8ee/J	8ee\J	.	8r	.	.	.	8r	8r
4.d\	.	8ee/L	8ee\L	.	8gg#\L	.	.	.	8gg#\L	8gg#\L
.	.	8ee/	8ee\	.	8bb\	.	.	.	8bb\	8bb\
.	.	8ee/J	8ee\J	.	8gg#\J	.	.	.	8gg#\J	8gg#\J
*	*	*v	*v	*	*	*	*	*	*	*
!	!	!	!	!	!	!	!	!LO:LB:g=original	!
=18	=18	=18	=18	=18	=18	=18	=18	=18	=18
*	*	*	*	*^	*	*	*	*	*
4.c#\	.	8ee\L	.	4aa/	4cc#\	.	2.A/	2.A/	4aa\	4aa\
.	.	8ee\	.	.	.	.	.	.	.	.
.	.	8ee\J	.	8r	2ryy	.	.	.	8r	8r
4.A\	.	8ee\L	.	8aa\L	.	.	.	.	8aa\L	8aa\L
.	.	8ee\	.	8ccc#\	.	.	.	.	8ccc#\	8ccc#\
.	.	8ee\J	.	8aa\J	.	.	.	.	8aa\J	8aa\J
=19	=19	=19	=19	=19	=19	=19	=19	=19	=19	=19
4.G#X\	.	8ee\L	.	4bb/	4dd\	.	2.e\	2.e\	4bb\	4bb\
.	.	8ee\	.	.	.	.	.	.	.	.
.	.	8ee\J	.	8r	2ryy	.	.	.	8r	8r
4.E\	.	8ee\L	.	8bb\L	.	.	.	.	8bb\L	8bb\L
.	.	8ee\	.	8ddd\	.	.	.	.	8ddd\	8ddd\
.	.	8ee\J	.	8bb\J	.	.	.	.	8bb\J	8bb\J
!	!	!	!	!	!	!	!LO:LB:g=original	!	!	!
=20	=20	=20	=20	=20	=20	=20	=20	=20	=20	=20
4.A\	.	8ee\L	.	4ccc#/	4a\	.	2.A/	2.A/	4ccc#\	4ccc#\
.	.	8ee\	.	.	.	.	.	.	.	.
.	.	8ee\J	.	8aa/	8a\	.	.	.	8aa\	8aa\
4.AA/	.	8ee\L	.	4aa/	4a\	.	.	.	4aa\	4aa\
.	.	8ee\	.	.	.	.	.	.	.	.
.	.	8ee\J	.	8r	8ryy	.	.	.	8r	8r
=21	=21	=21	=21	=21	=21	=21	=21	=21	=21	=21
*	*	*tremolo	*	*	*	*	*	*	*	*
*	*	*tremolo	*	*	*	*	*	*	*	*
4.e\	.	8ee\L	.	4gg#X/	4b\	.	2.e\	2.e\	4gg#X\	4gg#X\
.	.	8ee\	.	.	.	.	.	.	.	.
.	.	8ee\J	.	8r	2ryy	.	.	.	8r	8r
4.d\	.	8ee\L	.	8gg#\L	.	.	.	.	8gg#\L	8gg#\L
.	.	8ee\	.	8bb\	.	.	.	.	8bb\	8bb\
.	.	8ee\J	.	8gg#\J	.	.	.	.	8gg#\J	8gg#\J
!	!	!	!	!LO:LB:g=original	!	!	!	!	!	!LO:LB:g=original
=22	=22	=22	=22	=22	=22	=22	=22	=22	=22	=22
4.c#\	.	8ee\L	.	4aa/	4cc#\	.	2.A/	2.A/	4aa\	4aa\
.	.	8ee\	.	.	.	.	.	.	.	.
.	.	8ee\J	.	8r	2ryy	.	.	.	8r	8r
4.A\	.	8ee\L	.	8aa\L	.	.	.	.	8aa\L	8aa\L
.	.	8ee\	.	8ccc#\	.	.	.	.	8ccc#\	8ccc#\
.	.	8ee\J	.	8aa\J	.	.	.	.	8aa\J	8aa\J
=23	=23	=23	=23	=23	=23	=23	=23	=23	=23	=23
4.G#X\	.	8ee\L	.	4bb/	4dd\	.	2.e\	2.e\	4bb\	4bb\
.	.	8ee\	.	.	.	.	.	.	.	.
.	.	8ee\J	.	8r	2ryy	.	.	.	8r	8r
4.E\	.	8ee\L	.	8bb\L	.	.	.	.	8bb\L	8bb\L
.	.	8ee\	.	8ddd\	.	.	.	.	8ddd\	8ddd\
.	.	8ee\J	.	8bb\J	.	.	.	.	8bb\J	8bb\J
*	*	*Xtremolo	*	*	*	*	*	*	*	*
=24	=24	=24	=24	=24	=24	=24	=24	=24	=24	=24
4.A\	.	4ee\	.	8ccc#/L	4.a\	.	4A/	4e\	4cc#\	4cc#\
.	.	.	.	8aa/	.	.	.	.	.	.
.	.	8r	.	8aa/J	.	.	8r	8r	8r	8r
4c#\	.	8a/L 8ee	.	8aa/L	4.a\	.	4A/	4e\	8ee\L	8ee\L
.	.	8ff#/	.	8aa/	.	.	.	.	8ff#\	8ff#\
8A\	.	8ggn/J	.	8aa/J	.	.	8r	8r	8ggn\J	8ggn\J
!	!	!LO:LB:g=original	!	!	!	!	!	!LO:LB:g=original	!	!
=25	=25	=25	=25	=25	=25	=25	=25	=25	=25	=25
4d\	.	8ff#\L	.	8aa/L	4.a\	.	4d\	4f#\	8ff#\L	8ff#\L
.	.	8ee\	.	8aa/	.	.	.	.	8ee\	8ee\
8A\	.	8dd\J	.	8aa/J	.	.	8r	8r	8dd\J	8dd\J
4c#\	.	8a/L 8ee	.	8aa/L	4.a\	.	4.A/	4.e\	8ee\L	8ee\L
.	.	8ff#/	.	8aa/	.	.	.	.	8ff#\	8ff#\
8A\	.	8gg/J	.	8aa/J	.	.	.	.	8gg\J	8gg\J
!	!	!	!	!	!	!	!	!	!LO:LB:g=original	!
=26	=26	=26	=26	=26	=26	=26	=26	=26	=26	=26
4d\	.	8ff#/L	.	8aa/L	4.a\	.	4d\	4f#\	8ff#\L	8ff#\L
.	.	8ee/	.	8aa/	.	.	.	.	8ee\	8ee\
8A\	.	8dd/J	.	8aa/J	.	.	8r	8r	8dd\J	8dd\J
4c#\	.	8a/L 8ee	.	8aa/L	4.a\	.	4.A/	4.e\	8ee\L	8ee\L
.	.	8ff#/	.	8aa/	.	.	.	.	8ff#\	8ff#\
8A\	.	8gg/J	.	8aa/J	.	.	.	.	8gg\J	8gg\J
!LO:LB:g=original	!	!	!	!	!	!	!	!	!	!
=27	=27	=27	=27	=27	=27	=27	=27	=27	=27	=27
4d\	.	8ff#\L	.	8aa/L	4.a\	.	4d\	4f#\	8ff#\L	8ff#\L
.	.	8ee\	.	8aa/	.	.	.	.	8ee\	8ee\
8A\	.	8dd\J	.	8aa/J	.	.	8r	8r	8dd\J	8dd\J
4c#\	.	8a/L 8ee	.	8aa/L	4.a\	.	4.A/	4.e\	8ee\L	8ee\L
.	.	8ff#/	.	8aa/	.	.	.	.	8ff#\	8ff#\
8A\	.	8gg/J	.	8aa/J	.	.	.	.	8gg\J	8gg\J
=28	=28	=28	=28	=28	=28	=28	=28	=28	=28	=28
4d\	.	4ff#\	.	4aa/	4a\	.	4d\	4f#\	4ff#\	4ff#\
8r	.	8r	.	8r	2ryy	.	8r	8r	8r	8r
4D\	.	8dd\L	.	8ff#\L	.	.	4r	4r	8ff#\L	8ff#\L
.	.	8ee\	.	8gg#X\	.	.	.	.	8gg#X\	8gg#X\
8r	.	8ff#\J	.	8aa\J	.	.	8r	8r	8aa\J	8aa\J
*	*	*	*	*v	*v	*	*	*	*	*
!	!	!	!	!LO:LB:g=original	!	!	!	!	!LO:LB:g=original
=29	=29	=29	=29	=29	=29	=29	=29	=29	=29
4E\	.	8ee\L	.	8gg#X\L	.	2.e\	2.e\	8gg#X\L	8gg#X\L
.	.	8dd\	.	8ff#\	.	.	.	8ff#\	8ff#\
8r	.	8cc#\J	.	8ee\J	.	.	.	8ee\J	8ee\J
4E\	.	8b/L	.	8dd\L	.	.	.	8dd\L	8dd\L
.	.	8a/	.	8cc#\	.	.	.	8cc#\	8cc#\
8r	.	8g#X/J	.	8b\J	.	.	.	8b\J	8b\J
=30	=30	=30	=30	=30	=30	=30	=30	=30	=30
*	*	*	*	*^	*	*	*	*	*
4A\	.	4a/	.	8aa/L	4.a\	.	4A/	4e\	4a/	4a/
.	.	.	.	8aa/	.	.	.	.	.	.
8r	.	8r	.	8aa/J	.	.	8r	8r	8r	8r
4c#\	.	8a/L 8ee	.	8aa/L	4.a\	.	4r	4r	8ee\L	8ee\L
.	.	8ff#/	.	8aa/	.	.	.	.	8ff#\	8ff#\
!	!	!	!	!	!	!	!	!	!LO:TX:a:t=SIC!:s:8ggn	!
8A\	.	8ggn/J	.	8aa/J	.	.	8r	8r	8gg#X\J	8ggn\J
!	!	!	!	!	!	!	!LO:LB:g=original	!	!	!
=31	=31	=31	=31	=31	=31	=31	=31	=31	=31	=31
4d\	.	8ff#\L	.	8aa/L	4.a\	.	4r	4r	8ff#\L	8ff#\L
.	.	8ee\	.	8aa/	.	.	.	.	8ee\	8ee\
8A\	.	8dd\J	.	8aa/J	.	.	8r	8r	8dd\J	8dd\J
4c#\	.	8a/L 8ee	.	8aa/L	4.a\	.	4.A/	4.e\	8ee\L	8ee\L
.	.	8ff#/	.	8aa/	.	.	.	.	8ff#\	8ff#\
8A\	.	8gg/J	.	8aa/J	.	.	.	.	8gg\J	8gg\J
!	!	!LO:LB:g=original	!	!	!	!	!	!	!	!
=32	=32	=32	=32	=32	=32	=32	=32	=32	=32	=32
4d\	.	8ff#\L	.	8aa/L	4.a\	.	4d\	4f#\	8ff#\L	8ff#\L
.	.	8ee\	.	8aa/	.	.	.	.	8ee\	8ee\
8A\	.	8dd\J	.	8aa/J	.	.	8r	8r	8dd\J	8dd\J
4c#\	.	8a/L 8ee	.	8aa/L	4.a\	.	4r	4r	8ee\L	8ee\L
.	.	8ff#/	.	8aa/	.	.	.	.	8ff#\	8ff#\
8A\	.	8gg/J	.	8aa/J	.	.	8r	8r	8gg\J	8gg\J
=33	=33	=33	=33	=33	=33	=33	=33	=33	=33	=33
4d\	.	8ff#\L	.	8aa/L	4.a\	.	4r	4r	8ff#\L	8ff#\L
.	.	8ee\	.	8aa/	.	.	.	.	8ee\	8ee\
8A\	.	8dd\J	.	8aa/J	.	.	8r	8r	8dd\J	8dd\J
4c#\	.	8a/L 8ee	.	8aa/L	4.a\	.	4.A/	4.e\	8ee\L	8ee\L
.	.	8ff#/	.	8aa/	.	.	.	.	8ff#\	8ff#\
8A\	.	8gg/J	.	8aa/J	.	.	.	.	8gg\J	8gg\J
!	!	!	!	!	!	!	!	!LO:LB:g=original	!LO:LB:g=original	!
=34	=34	=34	=34	=34	=34	=34	=34	=34	=34	=34
4d\	.	4ff#\	.	4aa/	4a\	.	4d\	4f#\	4ff#\	4ff#\
8r	.	8r	.	8r	2ryy	.	8r	8r	8r	8r
4D\	.	8dd\L	.	8ff#\L	.	.	4r	4r	8dd\L	8ff#\L
.	.	8ee\	.	8gg#X\	.	.	.	.	8ee\	8gg#X\
8r	.	8ff#\J	.	8aa\J	.	.	8r	8r	8ff#\J	8aa\J
*	*	*	*	*v	*v	*	*	*	*	*
=35	=35	=35	=35	=35	=35	=35	=35	=35	=35
!	!	!	!	!	!	!	!	!	!LO:TX:a:t=SIC!:s=8gg#
4E\	.	8ee\L	.	8gg\L	.	2.e\	2.e\	8ee\L	8gg\L
.	.	8dd\	.	8ff#\	.	.	.	8dd\	8ff#\
8r	.	8cc#\J	.	8ee\J	.	.	.	8cc#\J	8ee\J
4E\	.	8b/L	.	8dd\L	.	.	.	8b/L	8dd\L
.	.	8a/	.	8cc#\	.	.	.	8a/	8cc#\
8r	.	8g#X/J	.	8b\J	.	.	.	8g#X/J	8b\J
!LO:LB:g=original	!	!	!	!LO:LB:g=original	!	!	!	!	!LO:LB:g=original
=36	=36	=36	=36	=36	=36	=36	=36	=36	=36
*	*	*^	*	*^	*	*	*	*	*
4A\	.	8a/L	8ryy	.	8a/L	8ryy	.	4A/	4e\	8a\L	8cc#\L
.	.	8ee/	8cc#\L	.	8ee/	8cc#\L	.	.	.	8cc#\	8ee\
8r	.	8ee/J	8cc#\J	.	8ee/J	8cc#\J	.	8r	8r	8cc#\J	8ee\J
*	*	*tremolo	*tremolo	*	*	*	*	*	*	*	*
4A\	.	8ee/L	8cc#\L	.	8ee/L	4.cc#\	.	4A/	4e\	8cc#\L	8ee\L
.	.	8ee/	8cc#\	.	8ee/	.	.	.	.	8cc#\	8ee\
8r	.	8ee/J	8cc#\J	.	8ee/J	.	.	8r	8r	8cc#\J	8ee\J
*	*	*Xtremolo	*Xtremolo	*	*	*	*	*	*	*	*
=37	=37	=37	=37	=37	=37	=37	=37	=37	=37	=37	=37
4A\	.	8ee/L	4.cc#\	.	8ee/L	4.cc#\	.	4A/	4e\	8cc#\L	8ee\L
.	.	8aa/	.	.	8aa/	.	.	.	.	8cc#\	8aa\
8r	.	8aa/J	.	.	8aa/J	.	.	8r	8r	8cc#\J	8aa\J
4A\	.	8aa/L	4.cc#\	.	8aa/L	4.cc#\	.	4A/	4e\	8cc#\L	8aa\L
.	.	8aa/	.	.	8aa/	.	.	.	.	8cc#\	8aa\
8r	.	8aa/J	.	.	8aa/J	.	.	8r	8r	8cc#\J	8aa\J
=38	=38	=38	=38	=38	=38	=38	=38	=38	=38	=38	=38
4A\	.	4aa/	4cc#\	.	4aa/	4cc#\	.	4A/	4e\	4cc#\	4aa\
8r	.	8r	2ryy	.	8r	2ryy	.	8r	8r	8r	8r
4r	.	4r	.	.	4r	.	.	4r	4r	4r	4r
8r	.	8r	.	.	8r	.	.	8r	8r	8r	8r
*	*	*v	*v	*	*	*	*	*	*	*	*
*	*	*	*	*v	*v	*	*	*	*	*
!	!	!LO:LB:g=original	!	!	!	!LO:LB:g=original	!	!	!
=39	=39	=39	=39	=39	=39	=39	=39	=39	=39
!	!	!	!	!	!	!LO:TX:a:t=25	!LO:TX:a:t=25	!LO:TX:a:t=25	!LO:TX:a:t=25
!	!	!	!	!	!	!LO:N:vis=00	!LO:N:vis=00	!LO:N:vis=00	!LO:N:vis=00
4D/	p	8d/L	p	4dd\	p	0.r	0.r	0.r	0.r
.	.	8fn/	.	.	.	.	.	.	.
8r	.	8a/J	.	8r	.	.	.	.	.
4C#/	.	8c#/L	.	4ee\	.	.	.	.	.
.	.	8e/	.	.	.	.	.	.	.
8r	.	8a/J	.	8r	.	.	.	.	.
=40	=40	=40	=40	=40	=40	=40	=40	=40	=40
4D\	.	8d/L	.	4ffn\	.	.	.	.	.
.	.	8fn/	.	.	.	.	.	.	.
8r	.	8a/J	.	8aa\	.	.	.	.	.
4D\	.	8d/L	.	4aa\	.	.	.	.	.
.	.	8f/	.	.	.	.	.	.	.
8r	.	8a/J	.	8r	.	.	.	.	.
=41	=41	=41	=41	=41	=41	=41	=41	=41	=41
4D\	.	8d/L	.	8aa\L	.	.	.	.	.
!	!	!LO:TX:a:t=SIC:s:8fn:v	!	!	!	!	!	!	!
.	.	8f#/	.	8ffn\	.	.	.	.	.
8r	.	8a/J	.	8dd\J	.	.	.	.	.
4C#/	.	8c#/L	.	8gg\L	.	.	.	.	.
.	.	8e/	.	8ee\	.	.	.	.	.
8r	.	8a/J	.	8cc#\J	.	.	.	.	.
=42	=42	=42	=42	=42	=42	=42	=42	=42	=42
4D\	.	8d/L	.	4dd\	.	.	.	.	.
.	.	8fn/	.	.	.	.	.	.	.
8r	.	8a/J	.	8a/	.	.	.	.	.
4D\	.	8d/L	.	4a/	.	.	.	.	.
.	.	8f/	.	.	.	.	.	.	.
8r	.	8a/J	.	8r	.	.	.	.	.
=43	=43	=43	=43	=43	=43	=43	=43	=43	=43
!	!	!	!	!	!	!LO:N:vis=00	!LO:N:vis=00	!LO:N:vis=00	!LO:N:vis=00
4D\	.	8d/L	.	4dd\	.	0.r	0.r	0.r	0.r
.	.	8f#/	.	.	.	.	.	.	.
8r	.	8a/J	.	8r	.	.	.	.	.
4C#/	.	8c#/L	.	4ee\	.	.	.	.	.
.	.	8e/	.	.	.	.	.	.	.
8r	.	8a/J	.	8r	.	.	.	.	.
!	!	!	!	!LO:LB:g=original	!	!	!	!	!
=44	=44	=44	=44	=44	=44	=44	=44	=44	=44
4D\	.	8d/L	.	4ffn\	.	.	.	.	.
.	.	8fn/	.	.	.	.	.	.	.
8r	.	8a/J	.	8aa\	.	.	.	.	.
4D\	.	8d/L	.	4aa\	.	.	.	.	.
.	.	8f/	.	.	.	.	.	.	.
8r	.	8a/J	.	8r	.	.	.	.	.
!LO:LB:g=original	!	!	!	!	!	!	!	!	!
=45	=45	=45	=45	=45	=45	=45	=45	=45	=45
4D\	.	8d/L	.	8aa\L	.	.	.	.	.
!	!	!LO:TX:a:t=SIC:s:8f#	!	!	!	!	!	!	!
.	.	8f#/	.	8ffn\	.	.	.	.	.
8r	.	8a/J	.	8dd\J	.	.	.	.	.
4C#/	.	8c#/L	.	8gg\L	.	.	.	.	.
.	.	8e/	.	8ee\	.	.	.	.	.
8r	.	8a/J	.	8cc#\J	.	.	.	.	.
!	!	!LO:LB:g=original	!	!	!	!	!	!	!
=46	=46	=46	=46	=46	=46	=46	=46	=46	=46
4D\	.	8d/L	.	4dd\	.	.	.	.	.
.	.	8fn/	.	.	.	.	.	.	.
8r	.	8a/J	.	8r	.	.	.	.	.
4E\	.	8e/L	.	4r	.	.	.	.	.
.	.	8g/	.	.	.	.	.	.	.
8r	.	8ccn/J	.	8r	.	.	.	.	.
=47	=47	=47	=47	=47	=47	=47	=47	=47	=47
!	!	!	!	!	!	!LO:N:vis=00	!LO:N:vis=00	!LO:N:vis=00	!LO:N:vis=00
4Fn\	.	8fn/L	.	4ffn\	.	0.r	0.r	0.r	0.r
.	.	8a/	.	.	.	.	.	.	.
8r	.	8ccn/J	.	8r	.	.	.	.	.
4E\	.	8e/L	.	4gg\	.	.	.	.	.
.	.	8g/	.	.	.	.	.	.	.
8r	.	8cc/J	.	8r	.	.	.	.	.
=48	=48	=48	=48	=48	=48	=48	=48	=48	=48
4Fn\	.	8fn/L	.	4aa\	.	.	.	.	.
.	.	8a/	.	.	.	.	.	.	.
8r	.	8ccn/J	.	8cccn\	.	.	.	.	.
4F\	.	8f/L	.	4ccc\	.	.	.	.	.
.	.	8a/	.	.	.	.	.	.	.
8r	.	8cc/J	.	8r	.	.	.	.	.
=49	=49	=49	=49	=49	=49	=49	=49	=49	=49
!LO:TX:a:t=SIC:s:4fn:v	!	!LO:TX:a:t=SIC:s:8fn:v	!	!	!	!	!	!	!
4F#\	.	8f#/L	.	8cccn\L	.	.	.	.	.
.	.	8a/	.	8aa\	.	.	.	.	.
!	!	!LO:TX:a:t=SIC:s:8ccn:v	!	!	!	!	!	!	!
8r	.	8cc#/J	.	8ffn\J	.	.	.	.	.
4Cn/	.	8e/L	.	8bb-X\L	.	.	.	.	.
.	.	8g/	.	8gg\	.	.	.	.	.
8r	.	8ccn/J	.	8ee\J	.	.	.	.	.
=50	=50	=50	=50	=50	=50	=50	=50	=50	=50
4Fn\	.	8fn/L	.	4ffn\	.	.	.	.	.
.	.	8a/	.	.	.	.	.	.	.
8r	.	8ccn/J	.	8ccn\	.	.	.	.	.
4F\	.	8f/L	.	4cc\	.	.	.	.	.
.	.	8a/	.	.	.	.	.	.	.
8r	.	8cc/J	.	8r	.	.	.	.	.
!	!	!	!	!LO:LB:g=original	!	!	!	!	!
=51	=51	=51	=51	=51	=51	=51	=51	=51	=51
!LO:TX:a:t=SIC:s:4fn	!	!LO:TX:a:t=SIC:s:8fn	!	!	!	!LO:N:vis=00	!LO:N:vis=00	!LO:N:vis=00	!LO:N:vis=00
4F#\	.	8f#/L	.	4ffn\	.	0.r	0.r	0.r	0.r
.	.	8a/	.	.	.	.	.	.	.
!	!	!LO:SIC:s-8ccn	!	!	!	!	!	!	!
8r	.	8cc#/J	.	8r	.	.	.	.	.
4E\	.	8e/L	.	4gg\	.	.	.	.	.
.	.	8g/	.	.	.	.	.	.	.
8r	.	8cc#/J	.	8r	.	.	.	.	.
!	!	!LO:PB:g=original	!	!	!	!	!	!	!
=52	=52	=52	=52	=52	=52	=52	=52	=52	=52
4Fn\	.	8fn/L	.	4aa\	.	.	.	.	.
.	.	8a/	.	.	.	.	.	.	.
8r	.	8ccn/J	.	8cccn\	.	.	.	.	.
4F\	.	8f/L	.	4ccc\	.	.	.	.	.
.	.	8a/	.	.	.	.	.	.	.
8r	.	8cc/J	.	8r	.	.	.	.	.
=53	=53	=53	=53	=53	=53	=53	=53	=53	=53
!LO:TX:a:t=SIC:s:4fn	!	!LO:TX:a:t=SIC:s:8fn	!	!	!	!	!	!	!
4F#\	.	8f#/L	.	8cccn\L	.	.	.	.	.
.	.	8a/	.	8aa\	.	.	.	.	.
!	!	!LO:TX:a:t=SIC:s:8ccn	!	!	!	!	!	!	!
8r	.	8cc#/J	.	8ffn\J	.	.	.	.	.
4E\	.	8e/L	.	8bb-X\L	.	.	.	.	.
.	.	8g/	.	8gg\	.	.	.	.	.
8r	.	8cc#/J	.	8ee\J	.	.	.	.	.
!LO:LB:g=original	!	!	!	!	!	!	!	!	!
=54	=54	=54	=54	=54	=54	=54	=54	=54	=54
4Fn\	.	8fn/L	.	4ffn\	.	.	.	.	.
.	.	8a/	.	.	.	.	.	.	.
8r	.	8ccn/J	.	8r	.	.	.	.	.
4F\	.	8f/L	.	4r	.	.	.	.	.
.	.	8a/	.	.	.	.	.	.	.
8r	.	8cc/J	.	8r	.	.	.	.	.
=55	=55	=55	=55	=55	=55	=55	=55	=55	=55
!LO:TX:a:t=SIC:s:4B-	!	!	!	!	!	!LO:N:vis=00	!LO:N:vis=00	!LO:N:vis=00	!LO:N:vis=00
4B\	.	8b-X\L	.	4ddd\	.	0.r	0.r	0.r	0.r
.	.	8dd\	.	.	.	.	.	.	.
8r	.	8b-\J	.	8r	.	.	.	.	.
4A\	.	8a\L	.	4cccn\	.	.	.	.	.
.	.	8ccn\	.	.	.	.	.	.	.
8r	.	8a\J	.	8r	.	.	.	.	.
=56	=56	=56	=56	=56	=56	=56	=56	=56	=56
4G\	.	8g/L	.	4bb-X\	.	.	.	.	.
.	.	8b-X/	.	.	.	.	.	.	.
8r	.	8g/J	.	8r	.	.	.	.	.
4Fn\	.	8fn/L	.	4aa\	.	.	.	.	.
.	.	8a/	.	.	.	.	.	.	.
8r	.	8f/J	.	8r	.	.	.	.	.
=57	=57	=57	=57	=57	=57	=57	=57	=57	=57
4G\	.	8g/L	.	4bb-X\	.	.	.	.	.
.	.	8b-X/	.	.	.	.	.	.	.
8r	.	8g/J	.	8r	.	.	.	.	.
4Fn\	.	8fn/L	.	4aa\	.	.	.	.	.
.	.	8a/	.	.	.	.	.	.	.
8r	.	8f/J	.	8r	.	.	.	.	.
!	!	!LO:LB:g=original	!	!	!	!	!	!	!
=58	=58	=58	=58	=58	=58	=58	=58	=58	=58
4E\	.	8e/L	.	4gg\	.	.	.	.	.
.	.	8g/	.	.	.	.	.	.	.
8r	.	8e/J	.	8r	.	.	.	.	.
4Cn/	.	8cn/L	.	4ccn\	.	.	.	.	.
.	.	8e/	.	.	.	.	.	.	.
8r	.	8c/J	.	8r	.	.	.	.	.
!	!	!	!	!LO:LB:g=original	!	!	!	!	!
=59	=59	=59	=59	=59	=59	=59	=59	=59	=59
!	!	!	!	!	!	!LO:N:vis=00	!LO:N:vis=00	!LO:N:vis=00	!LO:N:vis=00
4G\	.	8g/L	.	4bb-X\	.	0.r	0.r	0.r	0.r
.	.	8b-X/	.	.	.	.	.	.	.
8r	.	8g/J	.	8r	.	.	.	.	.
4Fn\	.	8fn/L	.	4aa\	.	.	.	.	.
.	.	8a/	.	.	.	.	.	.	.
8r	.	8f/J	.	8r	.	.	.	.	.
=60	=60	=60	=60	=60	=60	=60	=60	=60	=60
4E\	.	8e/L	.	4gg\	.	.	.	.	.
.	.	8g/	.	.	.	.	.	.	.
8r	.	8e/J	.	8r	.	.	.	.	.
4D\	.	8d/L	.	4ffn\	.	.	.	.	.
.	.	8fn/	.	.	.	.	.	.	.
8r	.	8d/J	.	8r	.	.	.	.	.
=61	=61	=61	=61	=61	=61	=61	=61	=61	=61
4E\	.	8e/L	.	4gg\	.	.	.	.	.
.	.	8g/	.	.	.	.	.	.	.
8r	.	8e/J	.	8r	.	.	.	.	.
4D\	.	8d/L	.	4ffn\	.	.	.	.	.
.	.	8fn/	.	.	.	.	.	.	.
8r	.	8d/J	.	8r	.	.	.	.	.
=62	=62	=62	=62	=62	=62	=62	=62	=62	=62
!	!	!	!	!LO:TX:a:t=problem:mixed beam	!	!	!	!	!
8AA/L	.	8c#X/L	.	8ee\L	.	.	.	.	.
8AA/	.	8c#/	.	8a/	.	.	.	.	.
8AA/J	.	8c#/J	.	8a/J	.	.	.	.	.
8AA/L	.	8c#/L	.	8a/L	.	.	.	.	.
8AA/	.	8c#/	.	8a/	.	.	.	.	.
8AA/J	.	8c#/J	.	8a/J	.	.	.	.	.
!LO:LB:g=original	!	!	!	!	!	!	!	!	!
=63	=63	=63	=63	=63	=63	=63	=63	=63	=63
4AA/	.	4c#/	.	4a/	.	2.r	2.r	2.r	2.r
8r	.	8r	.	8r	.	.	.	.	.
4r	.	4r	.	4r	.	.	.	.	.
8r	.	8r	.	8r	.	.	.	.	.
!	!	!	!	!	!	!	!	!LO:PB:g=original	!LO:PB:g=original
=64	=64	=64	=64	=64	=64	=64	=64	=64	=64
*	*	*^	*	*^	*	*	*	*	*
!	!	!	!	!	!	!	!	!	!	!LO:TX:a:t=problem:brak daleszej część partii	!
4d\	.	4d/ 4a 4ff#X	4ryy	.	4d/ 4a 4ff#X	4ryy	.	4F#/	4d\	2.ryy	4.dd\
8r	.	8r	8ryy	.	8r	8ryy	.	8r	8r	.	.
4A\	.	4cc#/ 4ee	4a\	.	4cc#/ 4ee	4a\	.	4A/	4e\	.	4.ee\
8r	.	8r	8ryy	.	8r	8ryy	.	8r	8r	.	.
!	!	!LO:LB:g=original	!	!	!	!	!	!	!	!	!
=65	=65	=65	=65	=65	=65	=65	=65	=65	=65	=65	=65
4D\	.	4d/ 4a 4ff#	4ryy	.	4d/ 4a 4ff#	4ryy	.	4d\	4f#\	2.ryy	4ff#\
8r	.	8aa\	8ryy	.	8aa\	8ryy	.	8r	8r	.	8aa\
4F#\	.	4aa/	4a\	.	4aa/	4a\	.	4r	4r	.	4aa\
8A\	.	8r	8ryy	.	8r	8ryy	.	8r	8r	.	8r
*	*	*v	*v	*	*	*	*	*	*	*	*
*	*	*	*	*v	*v	*	*	*	*	*
=66	=66	=66	=66	=66	=66	=66	=66	=66	=66
4d\	.	8aa\L	.	8aa\L	.	4d\	4f#\	2.ryy	8aa\L
.	.	8ff#\	.	8ff#\	.	.	.	.	8ff#\
8r	.	8dd\J	.	8dd\J	.	8r	8r	.	8dd\J
4A\	.	8gg\L	.	8gg\L	.	4A/	4e\	.	8gg\L
.	.	8ee\	.	8ee\	.	.	.	.	8ee\
8r	.	8cc#\J	.	8cc#\J	.	8r	8r	.	8cc#\J
!	!	!	!	!LO:LB:g=original	!	!	!LO:LB:g=original	!	!
=67	=67	=67	=67	=67	=67	=67	=67	=67	=67
4D\	.	4dd\	.	4dd\	.	4F#/	4d\	2.ryy	4dd\
8r	.	8a/	.	8a/	.	8r	8r	.	8a/
4F#\	.	4a/	.	4a/	.	4r	4r	.	4a/
8A\	.	8r	.	8r	.	8r	8r	.	8r
=68	=68	=68	=68	=68	=68	=68	=68	=68	=68
*	*	*^	*	*^	*	*	*	*	*
4d\	.	4d/ 4a 4ff#	4ryy	.	4d/ 4a 4ff#	4ryy	.	4F#/	4d\	2.ryy	4.dd\
8r	.	8r	8ryy	.	8r	8ryy	.	8r	8r	.	.
4A\	.	4cc#/ 4ee	4a\	.	4cc#/ 4ee	4a\	.	4A/	4e\	.	4.ee\
8r	.	8r	8ryy	.	8r	8ryy	.	8r	8r	.	.
=69	=69	=69	=69	=69	=69	=69	=69	=69	=69	=69	=69
4D\	.	4d/ 4a 4ff#	4ryy	.	4d/ 4a 4ff#	4ryy	.	4d\	4f#\	2.ryy	4ff#\
8r	.	8aa\	8ryy	.	8aa\	8ryy	.	8r	8r	.	8aa\
4F#\	.	4aa/	4a\	.	4aa/	4a\	.	4r	4r	.	4aa\
8A\	.	8r	8ryy	.	8r	8ryy	.	8r	8r	.	8r
*	*	*v	*v	*	*	*	*	*	*	*	*
*	*	*	*	*v	*v	*	*	*	*	*
=70	=70	=70	=70	=70	=70	=70	=70	=70	=70
4d\	.	8aa\L	.	8aa\L	.	4d\	4f#\	2.ryy	8aa\L
.	.	8ff#\	.	8ff#\	.	.	.	.	8ff#\
8r	.	8dd\J	.	8dd\J	.	8r	8r	.	8dd\J
4A\	.	8gg\L	.	8gg\L	.	4A/	4e\	.	8gg\L
.	.	8ee\	.	8ee\	.	.	.	.	8ee\
8r	.	8cc#\J	.	8cc#\J	.	8r	8r	.	8cc#\J
!	!	!	!	!	!	!	!	!	!LO:LB:g=original
=71	=71	=71	=71	=71	=71	=71	=71	=71	=71
4D\	.	4dd\	.	4dd\	.	4F#/	4d\	2.ryy	4dd\
8r	.	8a/	.	8a/	.	8r	8r	.	8a/
4F#\	.	4a/	.	4a/	.	4r	4r	.	4a/
8D\	.	8r	.	8r	.	8r	8r	.	8r
!	!	!	!	!	!	!LO:LB:g=original	!	!	!
=72	=72	=72	=72	=72	=72	=72	=72	=72	=72
4G\	.	4d/ 4b 4gg	.	8bb\L	.	2.d\	2.d\	2.ryy	4.bb\
.	.	.	.	8bb\	.	.	.	.	.
8D\	.	8r	.	8bb\J	.	.	.	.	.
4F#\	.	4d/ 4a 4ff#	.	8aa\L	.	.	.	.	4.aa\
.	.	.	.	8aa\	.	.	.	.	.
8D\	.	8r	.	8aa\J	.	.	.	.	.
!	!	!LO:LB:g=original	!	!	!	!	!	!	!
=73	=73	=73	=73	=73	=73	=73	=73	=73	=73
*	*	*^	*	*	*	*	*	*	*
4E\	.	4cc#/ 4ee	4a\	.	8gg\L	.	4.A/	4.e\	2.ryy	4.gg\
.	.	.	.	.	8gg\	.	.	.	.	.
8AA/	.	8r	8ryy	.	8gg\J	.	.	.	.	.
4D\	.	4d/ 4a 4ff#	4ryy	.	8ff#\L	.	4F#/	4d\	.	4.ff#\
.	.	.	.	.	8ff#\	.	.	.	.	.
8r	.	8r	8ryy	.	8ff#\J	.	8r	8r	.	.
*	*	*v	*v	*	*	*	*	*	*	*
=74	=74	=74	=74	=74	=74	=74	=74	=74	=74
4G\	.	4d/ 4b 4gg	.	8bb\L	.	2.d\	2.d\	2.ryy	4.bb\
.	.	.	.	8bb\	.	.	.	.	.
8D\	.	8r	.	8bb\J	.	.	.	.	.
4F#\	.	4d/ 4a 4ff#	.	8aa\L	.	.	.	.	4.aa\
.	.	.	.	8aa\	.	.	.	.	.
8D\	.	8r	.	8aa\J	.	.	.	.	.
!	!	!	!	!LO:LB:g=original	!	!	!	!	!
=75	=75	=75	=75	=75	=75	=75	=75	=75	=75
*	*	*^	*	*	*	*	*	*	*
4E\	.	4cc#/ 4ee	4a\	.	8gg\L	.	4.A/	4.e\	2.ryy	4.gg\
.	.	.	.	.	8gg\	.	.	.	.	.
8AA/	.	8r	8ryy	.	8gg\J	.	.	.	.	.
4D\	.	4d/ 4a 4ff#	4ryy	.	8ff#\L	.	4F#/	4d\	.	4.ff#\
.	.	.	.	.	8ff#\	.	.	.	.	.
8r	.	8r	8ryy	.	8ff#\J	.	8r	8r	.	.
!LO:LB:g=original	!	!	!	!	!	!	!	!	!	!
=76	=76	=76	=76	=76	=76	=76	=76	=76	=76	=76
*	*	*	*	*	*^	*	*	*	*	*
4c#\	.	4cc#/ 4ee	4a\	.	8ee/L	4.a\	.	2.A/	2.e\	2.ryy	4.ee\
.	.	.	.	.	8ee/	.	.	.	.	.	.
8A\	.	8r	8ryy	.	8ee/J	.	.	.	.	.	.
4c#\	.	4cc#/ 4ee	4a\	.	8aa/L	4.a\	.	.	.	.	4.aa\
.	.	.	.	.	8aa/	.	.	.	.	.	.
8A\	.	8r	8ryy	.	8aa/J	.	.	.	.	.	.
*	*	*v	*v	*	*	*	*	*	*	*	*
!	!	!	!	!	!	!	!	!LO:LB:g=original	!	!
=77	=77	=77	=77	=77	=77	=77	=77	=77	=77	=77
4d\	.	4d/ 4a 4ff#	.	8ff#/L	4.a\	.	2.d\	2.f#\	2.ryy	4.ff#\
.	.	.	.	8ff#/	.	.	.	.	.	.
8A\	.	8r	.	8ff#/J	.	.	.	.	.	.
4d\	.	4d/ 4a 4ff#	.	8aa/L	4.a\	.	.	.	.	4.aa\
.	.	.	.	8aa/	.	.	.	.	.	.
8A\	.	8r	.	8aa/J	.	.	.	.	.	.
=78	=78	=78	=78	=78	=78	=78	=78	=78	=78	=78
*	*	*^	*	*	*	*	*	*	*	*
4c#\	.	4cc#/ 4ee	4a\	.	8ee/L	4.a\	.	2.A/	2.e\	2.ryy	4.ee\
.	.	.	.	.	8ee/	.	.	.	.	.	.
8A\	.	8r	8ryy	.	8ee/J	.	.	.	.	.	.
4c#\	.	4cc#/ 4ee	4a\	.	8aa/L	4.a\	.	.	.	.	4.aa\
.	.	.	.	.	8aa/	.	.	.	.	.	.
8A\	.	8r	8ryy	.	8aa/J	.	.	.	.	.	.
*	*	*v	*v	*	*	*	*	*	*	*	*
*	*	*	*	*v	*v	*	*	*	*	*
=79	=79	=79	=79	=79	=79	=79	=79	=79	=79
4d\	.	4d/ 4a 4ff#	.	4d/ 4a 4ff#	.	4F#/	4d\	2.ryy	4ff#\
8r	.	8r	.	8r	.	8r	8r	.	8r
4D\	.	8d/L	p	8f#/L	p	4r	4r	.	4r
.	.	8d/	.	8f#/	.	.	.	.	.
8r	.	8d/J	.	8f#/J	.	8r	8r	.	8r
!	!	!	!	!	!	!	!	!	!LO:LB:g=original
=80	=80	=80	=80	=80	=80	=80	=80	=80	=80
!	!	!	!	!	!	!LO:TX:a:t=7	!LO:TX:a:t=7	!	!LO:N:vis=00
!	!	!	!	!	!	!LO:N:vis=00	!LO:N:vis=00	!	!
4D\	p	8e/L	.	8g/L	.	0.r	0.r	2.ryy	0.r
.	.	8e/	.	8g/	.	.	.	.	.
8r	.	8e/J	.	8g/J	.	.	.	.	.
4D\	.	8c#/L	.	8e/L	.	.	.	.	.
.	.	8c#/	.	8e/	.	.	.	.	.
8r	.	8c#/J	.	8e/J	.	.	.	.	.
=81	=81	=81	=81	=81	=81	=81	=81	=81	=81
!LO:TX:a:t=problem:repetycja tt.80	!	!	!	!	!	!	!	!	!
4D\yy	p	8f#/L	.	8a/L	.	.	.	2.ryy	.
.	.	8f#/	.	8a/	.	.	.	.	.
8ryy	.	8f#/J	.	8a/J	.	.	.	.	.
4D\yy	.	8d/L	.	8f#/L	.	.	.	.	.
.	.	8d/	.	8f#/	.	.	.	.	.
8ryy	.	8d/J	.	8f#/J	.	.	.	.	.
!	!	!LO:LB:g=original	!	!	!	!	!	!	!
=82	=82	=82	=82	=82	=82	=82	=82	=82	=82
4D\	.	8e/L	.	8g/L	.	.	.	2.ryy	.
.	.	8e/	.	8g/	.	.	.	.	.
8r	.	8e/J	.	8g/J	.	.	.	.	.
4D\	.	8d/L	.	8g#X/L	.	.	.	.	.
.	.	8d/	.	8g#/	.	.	.	.	.
8r	.	8d/J	.	8g#/J	.	.	.	.	.
!	!	!	!	!LO:LB:g=original	!	!	!	!	!
=83	=83	=83	=83	=83	=83	=83	=83	=83	=83
4AA/	.	8c#/L	.	8a/L	.	.	.	2.ryy	.
.	.	8c#/	.	8a/	.	.	.	.	.
8r	.	8c#/J	.	8a/J	.	.	.	.	.
4AA/	.	8a/L	.	8cc#\L	.	.	.	.	.
.	.	8a/	.	8cc#\	.	.	.	.	.
8r	.	8a/J	.	8cc#\J	.	.	.	.	.
=84	=84	=84	=84	=84	=84	=84	=84	=84	=84
!	!	!	!	!	!	!LO:N:vis=0	!LO:N:vis=0	!	!LO:N:vis=00
4AA/	.	8b/L	.	8dd\L	.	1.r	1.r	2.ryy	0.r
.	.	8b/	.	8dd\	.	.	.	.	.
8r	.	8b/J	.	8dd\J	.	.	.	.	.
*	*	*tremolo	*	*	*	*	*	*	*
4AA/	.	8g#X/L	.	8b\L	.	.	.	.	.
.	.	8g#X/	.	8b\	.	.	.	.	.
8r	.	8g#X/J	.	8b\J	.	.	.	.	.
=85	=85	=85	=85	=85	=85	=85	=85	=85	=85
!LO:TX:a:t=problem:repetycja tt. 83-84	!	!	!	!	!	!	!	!	!
4AA/yy	.	8cc#\L	.	8ee\L	.	.	.	2.ryy	.
.	.	8cc#\	.	8ee\	.	.	.	.	.
8ryy	.	8cc#\J	.	8ee\J	.	.	.	.	.
4AA/yy	.	8a/L	.	8cc#\L	.	.	.	.	.
.	.	8a/	.	8cc#\	.	.	.	.	.
8ryy	.	8a/J	.	8cc#\J	.	.	.	.	.
=86	=86	=86	=86	=86	=86	=86	=86	=86	=86
4AA/yy	.	8b\L	.	8dd\L	.	2.r	2.r	2.ryy	.
.	.	8b\	.	8dd\	.	.	.	.	.
8ryy	.	8b\J	.	8dd\J	.	.	.	.	.
4AA/yy	.	8cc#\L	.	8ee\L	.	.	.	.	.
.	.	8cc#\	.	8ee\	.	.	.	.	.
8ryy	.	8cc#\J	.	8ee\J	.	.	.	.	.
!	!	!	!	!	!	!LO:PB:g=original	!LO:PB:g=original	!	!
=87	=87	=87	=87	=87	=87	=87	=87	=87	=87
*	*	*	*	*	*	*	*2\right	*	*
4D\	.	8dd\L	.	8ff#\L	.	2.D/	2.d\	2.ryy	.
.	.	8dd\	.	8ff#\	.	.	.	.	.
8r	.	8dd\J	.	8ff#\J	.	.	.	.	.
4D\	.	8dd\L	.	8ff#\L	.	.	.	.	.
.	.	8dd\	.	8ff#\	.	.	.	.	.
8r	.	8dd\J	.	8ff#\J	.	.	.	.	.
=88	=88	=88	=88	=88	=88	=88	=88	=88	=88
4D\	.	8ee\L	.	8gg\L	.	2.D/	2.d\	2.ryy	2.r
.	.	8ee\	.	8gg\	.	.	.	.	.
8r	.	8ee\J	.	8gg\J	.	.	.	.	.
4D\	.	8cc#\L	.	8ee\L	.	.	.	.	.
.	.	8cc#\	.	8ee\	.	.	.	.	.
8r	.	8cc#\J	.	8ee\J	.	.	.	.	.
=89	=89	=89	=89	=89	=89	=89	=89	=89	=89
!	!	!	!LO:DY:t=for.	!	!	!	!	!	!
4D\	.	8ff#\L	f	8aa\L	.	2.D/	2.d\	2.ryy	4r
.	.	8ff#\	.	8aa\	.	.	.	.	.
8r	.	8ff#\J	.	8aa\J	.	.	.	.	8r
4D\	.	8dd\L	.	8ff#\L	.	.	.	.	4.ff#\
.	.	8dd\	.	8ff#\	.	.	.	.	.
8r	.	8dd\J	.	8ff#\J	.	.	.	.	.
=90	=90	=90	=90	=90	=90	=90	=90	=90	=90
4D\	.	8gg\L	.	8bb\L	.	2.D/	2.d\	2.ryy	4.gg\
.	.	8gg\	.	8bb\	.	.	.	.	.
8r	.	8gg\J	.	8bb\J	.	.	.	.	.
4D\	.	8ee\L	.	8ccc#\L	.	.	.	.	4.ee\
.	.	8ee\	.	8ccc#\	.	.	.	.	.
8r	.	8ee\J	.	8ccc#\J	.	.	.	.	.
*	*	*Xtremolo	*	*	*	*	*	*	*
*	*	*Xtremolo	*	*	*	*	*	*	*
!LO:LB:g=original	!	!LO:LB:g=original	!	!LO:LB:g=original	!	!	!	!	!
=91	=91	=91	=91	=91	=91	=91	=91	=91	=91
*	*	*	*	*^	*	*	*	*	*
4D\	.	4d/ 4a 4ff#	.	8ddd/L	4.dd\	.	4D/	4d\	2.ryy	4ff#\
.	.	.	.	8ddd/	.	.	.	.	.	.
8r	.	8r	.	8ddd/J	.	.	8r	8r	.	8r
*	*	*	*	*tremolo	*	*	*	*	*	*
4F#\	.	8aa\L	.	8ddd/L	4.dd\	.	4d\	4d\	.	8a\L
.	.	8bb\	.	8ddd/	.	.	.	.	.	8b\
8D\	.	8cccn\J	.	8ddd/J	.	.	8r	8r	.	8ccn\J
=92	=92	=92	=92	=92	=92	=92	=92	=92	=92	=92
*	*	*	*	*tremolo	*	*	*	*	*	*
*	*	*	*	*tremolo	*	*	*	*	*	*
4G\	.	8bb\L	.	8ddd/L	4.dd\	.	4d\	4d\	2.ryy	8b/L
.	.	8aa\	.	8ddd/	.	.	.	.	.	8a/
8D\	.	8gg\J	.	8ddd/J	.	.	8r	8r	.	8g/J
4F#\	.	8aa\L	.	8ddd/L	4.dd\	.	4d\	4d\	.	8a/L
.	.	8bb\	.	8ddd/	.	.	.	.	.	8b/
8D\	.	8cccn\J	.	8ddd/J	.	.	8r	8r	.	8ccn/J
=93	=93	=93	=93	=93	=93	=93	=93	=93	=93	=93
4G\	.	8bb\L	.	8ddd/L	4.dd\	.	4d\	4d\	2.ryy	8b/L
.	.	8aa\	.	8ddd/	.	.	.	.	.	8a/
8D\	.	8gg\J	.	8ddd/J	.	.	8r	8r	.	8g/J
4F#\	.	8aa\L	.	8ddd/L	4.dd\	.	4d\	4d\	.	8a/L
.	.	8bb\	.	8ddd/	.	.	.	.	.	8b/
8D\	.	8ccc#\J	.	8ddd/J	.	.	8r	8r	.	8cc#/J
=94	=94	=94	=94	=94	=94	=94	=94	=94	=94	=94
4G\	.	8bb\L	.	8ddd/L	4.dd\	.	4d\	4d\	2.ryy	8b/L
.	.	8aa\	.	8ddd/	.	.	.	.	.	8a/
8D\	.	8gg\J	.	8ddd/J	.	.	8r	8r	.	8g/J
4F#\	.	8aa\L	.	8ddd/L	4.dd\	.	4d\	4d\	.	8a/L
.	.	8bb\	.	8ddd/	.	.	.	.	.	8b/
8D\	.	8cccn\J	.	8ddd/J	.	.	8r	8r	.	8ccn/J
*	*	*	*	*Xtremolo	*	*	*	*	*	*
!	!	!	!	!	!	!	!	!	!	!LO:LB:g=original
=95	=95	=95	=95	=95	=95	=95	=95	=95	=95	=95
4G\	.	8bb\L	.	4ddd/	4dd\	.	4d\	4d\	2.ryy	4b\
.	.	8aa\	.	.	.	.	.	.	.	.
8r	.	8gg\J	.	8r	2r	.	8r	8r	.	8r
4G\	.	8gg\L	.	8bb/L	.	.	4r	4r	.	8b\L
.	.	8aa\	.	8ccc#/	.	.	.	.	.	8cc#X\
8r	.	8bb\J	.	8ddd/J	.	.	8r	8r	.	8dd\J
*	*	*	*	*v	*v	*	*	*	*	*
!	!	!	!	!	!	!LO:LB:g=original	!LO:LB:g=original	!	!
=96	=96	=96	=96	=96	=96	=96	=96	=96	=96
4A\	.	8aa\L	.	8ccc#\L	.	2.A/	2.e\	2.ryy	8cc#/L
.	.	8gg\	.	8bb\	.	.	.	.	8b/
8r	.	8ff#\J	.	8aa\J	.	.	.	.	8a/J
4AA/	.	8ee\L	.	8gg\L	.	.	.	.	8g/L
.	.	8dd\	.	8ff#\	.	.	.	.	8f#/
8r	.	8cc#\J	.	8ee\J	.	.	.	.	8e/J
=97	=97	=97	=97	=97	=97	=97	=97	=97	=97
*	*	*	*	*^	*	*	*	*	*
4D\	.	4d/ 4a 4ff#	.	8ddd/L	4.dd\	.	2.d\	2.d\	2.ryy	4f#/
.	.	.	.	8ddd/	.	.	.	.	.	.
8r	.	8r	.	8ddd/J	.	.	.	.	.	8r
*	*	*	*	*tremolo	*	*	*	*	*	*
4F#\	.	8aa\L	.	8ddd/L	4.dd\	.	.	.	.	8a/L
.	.	8bb\	.	8ddd/	.	.	.	.	.	8b/
8D\	.	8cccn\J	.	8ddd/J	.	.	.	.	.	8ccn/J
!	!	!LO:LB:g=original	!	!	!	!	!	!	!	!
=98	=98	=98	=98	=98	=98	=98	=98	=98	=98	=98
4G\	.	8bb\L	.	8ddd/L	4.dd\	.	2.d\	2.d\	2.ryy	8b/L
.	.	8aa\	.	8ddd/	.	.	.	.	.	8a/
8D\	.	8gg\J	.	8ddd/J	.	.	.	.	.	8g/J
4F#\	.	8aa\L	.	8ddd/L	4.dd\	.	.	.	.	8a\L
.	.	8bb\	.	8ddd/	.	.	.	.	.	8b\
8D\	.	8ccc#\J	.	8ddd/J	.	.	.	.	.	8ccn\J
=99	=99	=99	=99	=99	=99	=99	=99	=99	=99	=99
4G\	.	8bb\L	.	8ddd/L	4.dd\	.	2.d\	2.d\	2.ryy	8b/L
.	.	8aa\	.	8ddd/	.	.	.	.	.	8a/
8D\	.	8gg\J	.	8ddd/J	.	.	.	.	.	8g/J
4F#\	.	8aa\L	.	8ddd/L	4.dd\	.	.	.	.	8a/L
.	.	8bb\	.	8ddd/	.	.	.	.	.	8b/
8D\	.	8cccn\J	.	8ddd/J	.	.	.	.	.	8cc#/J
!	!	!	!	!LO:LB:g=original	!	!	!	!	!	!
=100	=100	=100	=100	=100	=100	=100	=100	=100	=100	=100
4G\	.	8bb\L	.	8ddd/L	4.dd\	.	2.d\	2.d\	2.ryy	8b/L
.	.	8aa\	.	8ddd/	.	.	.	.	.	8a/
8D\	.	8gg\J	.	8ddd/J	.	.	.	.	.	8g/J
4F#\	.	8aa\L	.	8ddd/L	4.dd\	.	.	.	.	8a/L
.	.	8bb\	.	8ddd/	.	.	.	.	.	8b/
8D\	.	8cccn\J	.	8ddd/J	.	.	.	.	.	8ccn/J
*	*	*	*	*Xtremolo	*	*	*	*	*	*
*	*	*	*	*Xtremolo	*	*	*	*	*	*
=101	=101	=101	=101	=101	=101	=101	=101	=101	=101	=101
4G\	.	4bb\	.	4ddd/	4dd\	.	4d\	4d\	2.ryy	4b\
8r	.	8r	.	8r	2ryy	.	8r	8r	.	8r
4G\	.	8gg\L	.	8bb\L	.	.	4r	4r	.	8b\L
.	.	8aa\	.	8ccc#\	.	.	.	.	.	8cc#X\
8r	.	8bb\J	.	8ddd\J	.	.	8r	8r	.	8dd\J
*	*	*	*	*v	*v	*	*	*	*	*
!	!	!	!	!	!	!	!	!	!LO:LB:g=original
=102	=102	=102	=102	=102	=102	=102	=102	=102	=102
4A\	.	8aa\L	.	8ccc#\L	.	2.A/	2.e\	2.ryy	8cc#X\L
.	.	8gg\	.	8bb\	.	.	.	.	8b\
8r	.	8ff#\J	.	8aa\J	.	.	.	.	8a\J
4AA/	.	8ee\L	.	8gg\L	.	.	.	.	8g/L
.	.	8dd\	.	8ff#\	.	.	.	.	8f#/
8r	.	8cc#\J	.	8ee\J	.	.	.	.	8e/J
!LO:LB:g=original	!	!	!	!	!	!	!	!	!
=103	=103	=103	=103	=103	=103	=103	=103	=103	=103
*	*	*	*	*^	*	*	*	*	*
4D\	.	4d/ 4a 4ff#	.	4dd/	4ryy	.	2.F#/	2.d\	2.ryy	4f#/
8r	.	8r	.	8r	8ryy	.	.	.	.	8r
4d\	.	4d/ 4a 4ff#	.	8ff#/L	4.a\	.	.	.	.	4.ff#\
.	.	.	.	8aa/	.	.	.	.	.	.
8r	.	8r	.	8ff#/J	.	.	.	.	.	.
=104	=104	=104	=104	=104	=104	=104	=104	=104	=104	=104
*	*	*	*	*	*	*	*	*	*	*2\right
4A\	.	4e/ 4cc# 4ee	.	8ee/L	4.a\	.	2.A/	2.e\	2.ryy	2.ee\
.	.	.	.	8gg/	.	.	.	.	.	.
8r	.	8r	.	8ee/J	.	.	.	.	.	.
4AA/	.	4e/ 4cc# 4ee	.	8ee/L	4.a\	.	.	.	.	.
.	.	.	.	8gg/	.	.	.	.	.	.
8r	.	8r	.	8ee/J	.	.	.	.	.	.
!	!	!LO:LB:g=original	!	!	!	!	!	!	!	!
=105	=105	=105	=105	=105	=105	=105	=105	=105	=105	=105
4D\	.	4d/ 4a 4ff#	.	8ff#/L	4.a\	.	2.d\	2.f#\	2.ryy	2.ff#\
.	.	.	.	8aa/	.	.	.	.	.	.
8r	.	8r	.	8ff#/J	.	.	.	.	.	.
4d\	.	4d/ 4a 4ff#	.	8ff#/L	4.a\	.	.	.	.	.
.	.	.	.	8aa/	.	.	.	.	.	.
8r	.	8r	.	8ff#/J	.	.	.	.	.	.
=106	=106	=106	=106	=106	=106	=106	=106	=106	=106	=106
4A\	.	4e/ 4cc# 4ee	.	8ee/L	4.a\	.	2.A/	2.e\	2.ryy	2.ee\
.	.	.	.	8gg/	.	.	.	.	.	.
8r	.	8r	.	8ee/J	.	.	.	.	.	.
4AA/	.	4e/ 4cc# 4ee	.	8ee/L	4.a\	.	.	.	.	.
.	.	.	.	8gg/	.	.	.	.	.	.
8r	.	8r	.	8ee/J	.	.	.	.	.	.
!	!	!	!	!LO:LB:g=original	!	!	!	!LO:LB:g=original	!	!
=107	=107	=107	=107	=107	=107	=107	=107	=107	=107	=107
4D\	.	4d/ 4a 4ff#	.	4ff#/	4a\	.	4d\	4f#\	2.ryy	4ff#\
8r	.	8r	.	8r	2ryy	.	8r	8r	.	8r
4F#\	.	4d/ 4a 4ff#	.	4d/ 4a 4ff#	.	.	4d\	4f#\	.	4ff#\
8D\	.	8r	.	8r	.	.	8r	8r	.	8r
!	!	!	!	!	!	!	!LO:LB:g=original	!	!	!
=108	=108	=108	=108	=108	=108	=108	=108	=108	=108	=108
*	*	*^	*	*	*	*	*	*	*	*
4G\	.	4d/ 4b 4gg	4ryy	.	4d/ 4b 4gg	4ryy	.	4e\	4g\	2.ryy	4gg\
8E\	.	8r	8ryy	.	8r	8ryy	.	8r	8r	.	8r
4A\	.	4cc#/ 4ee	4a\	.	4cc#/ 4ee	4a\	.	4A/	4e\	.	4ee\
8G\	.	8r	8ryy	.	8r	8ryy	.	8r	8r	.	8r
=109	=109	=109	=109	=109	=109	=109	=109	=109	=109	=109	=109
4F#\	.	4aa/	4a\	.	4aa/	4a\	.	4f#\	4a\	2.ryy	4aa\
8D\	.	8r	8ryy	.	8r	8ryy	.	8r	8r	.	8r
4F#\	.	4d/ 4a 4ff#	4ryy	.	4d/ 4a 4ff#	4ryy	.	4d\	4f#\	.	4ff#\
8D\	.	8r	8ryy	.	8r	8ryy	.	8r	8r	.	8r
=110	=110	=110	=110	=110	=110	=110	=110	=110	=110	=110	=110
4G\	.	4d/ 4b 4gg	4ryy	.	4d/ 4b 4gg	4ryy	.	4e\	4g\	2.ryy	4gg\
8E\	.	8r	8ryy	.	8r	8ryy	.	8r	8r	.	8r
4A\	.	4cc#/ 4ee	4a\	.	4cc#/ 4ee	4a\	.	4A/	4e\	.	4ee\
8AA/	.	8r	8ryy	.	8r	8ryy	.	8r	8r	.	8r
*	*	*v	*v	*	*	*	*	*	*	*	*
*	*	*	*	*v	*v	*	*	*	*	*
!	!	!	!	!	!	!	!	!	!LO:LB:g=original
=111	=111	=111	=111	=111	=111	=111	=111	=111	=111
4D\	.	4d/ 4a 4ff#	.	4d/ 4a 4ff#	.	4d\	4f#\	2.ryy	4ff#\
8r	.	8r	.	8r	.	8r	8r	.	8r
4F#\	.	4d/ 4a 4ff#	.	4d/ 4a 4ff#	.	4d\	4f#\	.	4ff#\
8D\	.	8r	.	8r	.	8r	8r	.	8r
=112	=112	=112	=112	=112	=112	=112	=112	=112	=112
*	*	*^	*	*^	*	*	*	*	*
4G\	.	4d/ 4b 4gg	4ryy	.	4d/ 4b 4gg	4ryy	.	4e\	4g\	2.ryy	4gg\
8E\	.	8r	8ryy	.	8r	8ryy	.	8r	8r	.	8r
4A\	.	4cc#/ 4ee	4a\	.	4cc#/ 4ee	4a\	.	4A/	4e\	.	4ee\
8G\	.	8r	8ryy	.	8r	8ryy	.	8r	8r	.	8r
=113	=113	=113	=113	=113	=113	=113	=113	=113	=113	=113	=113
4F#\	.	4aa/	4a\	.	4aa/	4a\	.	4f#\	4a\	2.ryy	4aa\
8D\	.	8r	8ryy	.	8r	8ryy	.	8r	8r	.	8r
4F#\	.	4d/ 4a 4ff#	4ryy	.	4d/ 4a 4ff#	4ryy	.	4d\	4f#\	.	4ff#\
8D\	.	8r	8ryy	.	8r	8ryy	.	8r	8r	.	8r
!	!	!LO:LB:g=original	!	!	!	!	!	!	!	!	!
=114	=114	=114	=114	=114	=114	=114	=114	=114	=114	=114	=114
4G\	.	4d/ 4b 4gg	4ryy	.	4d/ 4b 4gg	4ryy	.	4e\	4g\	2.ryy	4gg\
8E\	.	8r	8ryy	.	8r	8ryy	.	8r	8r	.	8r
4A\	.	4cc#/ 4ee	4a\	.	4cc#/ 4ee	4a\	.	4A/	4e\	.	4ee\
8AA/	.	8r	8ryy	.	8r	8ryy	.	8r	8r	.	8r
*	*	*v	*v	*	*	*	*	*	*	*	*
*	*	*	*	*v	*v	*	*	*	*	*
!LO:LB:g=original	!	!	!	!LO:PB:g=original	!	!	!LO:LB:g=original	!	!
=115	=115	=115	=115	=115	=115	=115	=115	=115	=115
4.D\	.	4.d/ 4.a 4.ff#	.	4.d/ 4.a 4.ff#	.	4.d\	4.f#\	2.ryy	4.ff#\
4.D\	.	4d/ 4a 4ff#	.	4d/ 4a 4ff#	.	4d\	4f#\	.	4ff#\
!	!	!	!	!	!	!	!	!	!LO:TX:a:t=a
.	.	8aa\	.	8aa\	.	8f#\	8a\	.	8aa\
!	!	!	!	!	!	!LO:LB:g=original	!	!	!
=116	=116	=116	=116	=116	=116	=116	=116	=116	=116
4D\	.	4d/ 4a 4ff#	.	4d/ 4a 4ff#	.	4d\	4f#\	2.ryy	4ff#\
8r	.	8aa\	.	8aa\	.	8f#\	8a\	.	8aa\
4.D\	.	4d/ 4a 4ff#	.	4d/ 4a 4ff#	.	4d\	4f#\	.	4ff#\
.	.	8aa\	.	8aa\	.	8f#\	8a\	.	8aa\
=117	=117	=117	=117	=117	=117	=117	=117	=117	=117
4.D\	.	4.d/ 4.a 4.ff#	.	4.d/ 4.a 4.ff#	.	4.d\	4.f#\	2.ryy	4.ff#\
4.D\	.	4.d/ 4.a 4.aa	.	4.d/ 4.a 4.aa	.	4.d\	4.f#\	.	4.aa\
=118	=118	=118	=118	=118	=118	=118	=118	=118	=118
4.D\	.	4.d/ 4.a 4.ff#	.	4.d/ 4.a 4.ff#	.	4.d\	4.f#\	2.ryy	4.aa\
4.D\	.	4.d/ 4.a 4.ff#	.	4.d/ 4.a 4.ff#	.	4.d\	4.f#\	.	4.aa\
=119	=119	=119	=119	=119	=119	=119	=119	=119	=119
4.D\	.	4.d/ 4.a 4.ff#	.	4.d/ 4.a 4.ff#	.	4.d\	4.f#\	2.ryy	4.aa\
8r	.	8r	.	4.r	.	8r	8r	.	8r
4r	.	4r	.	.	.	4r	4r	.	4r
==	==	==	==	==	==	==	==	==	==
*-	*-	*-	*-	*-	*-	*-	*-	*-	*-
!!!system-decoration: [(g1)][(g2)][(g3)]
!!!RDF**kern: >= above
!!!RDF**kern: <= below
!!!RDF**dynam: p=p.
!!!ENC: Anna Matuszewska
!!!END: 2020-07-30
!!!YEC: Copyright 2022 Narodowy Instytut Fryderyka Chopina (https://polishscores.org)
!!!YEM: Licence CC BY 4.0 (https://creativecommons.org/licenses/by/4.0)
